svgs/duotone/wand-magic-sparkles.svg

<svg xmlns="http://www.w3.org/2000/svg" viewBox="0 0 576 512"><!--! Font Awesome Pro 6.3.0 by @fontawesome - https://fontawesome.com License - https://fontawesome.com/license (Commercial License) Copyright 2023 Fonticons, Inc. --><defs><style>.fa-secondary{opacity:.4}</style></defs><path class="fa-primary" d="M148.5 497.9C129.8 516.6 99.38 516.6 80.64 497.9L46.06 463.3C27.31 444.6 27.31 414.2 46.06 395.4L316.7 124.7L419.2 227.2L148.5 497.9z"/><path class="fa-secondary" d="M248.8 4.994C249.9 1.99 252.8 .0001 256 .0001C259.2 .0001 262.1 1.99 263.2 4.994L277.3 42.67L315 56.79C318 57.92 320 60.79 320 64C320 67.21 318 70.08 315 71.21L277.3 85.33L263.2 123C262.1 126 259.2 128 256 128C252.8 128 249.9 126 248.8 123L234.7 85.33L196.1 71.21C193.1 70.08 192 67.21 192 64C192 60.79 193.1 57.92 196.1 56.79L234.7 42.67L248.8 4.994zM529.9 116.5L419.2 227.2L379.6 187.6L484.6 82.58L461.4 59.31L356.3 164.3L316.7 124.7L427.4 14.06C446.2-4.686 476.6-4.686 495.3 14.06L529.9 48.64C548.6 67.38 548.6 97.78 529.9 116.5H529.9zM7.491 117.2L64 96L85.19 39.49C86.88 34.98 91.19 32 96 32C100.8 32 105.1 34.98 106.8 39.49L128 96L184.5 117.2C189 118.9 192 123.2 192 128C192 132.8 189 137.1 184.5 138.8L128 160L106.8 216.5C105.1 221 100.8 224 96 224C91.19 224 86.88 221 85.19 216.5L64 160L7.491 138.8C2.985 137.1 0 132.8 0 128C0 123.2 2.985 118.9 7.491 117.2zM359.5 373.2L416 352L437.2 295.5C438.9 290.1 443.2 288 448 288C452.8 288 457.1 290.1 458.8 295.5L480 352L536.5 373.2C541 374.9 544 379.2 544 384C544 388.8 541 393.1 536.5 394.8L480 416L458.8 472.5C457.1 477 452.8 480 448 480C443.2 480 438.9 477 437.2 472.5L416 416L359.5 394.8C354.1 393.1 352 388.8 352 384C352 379.2 354.1 374.9 359.5 373.2z"/></svg>

<svg xmlns="http://www.w3.org/2000/svg" viewBox="0 0 576 512"><!--! Font Awesome Pro 6.4.0 by @fontawesome - https://fontawesome.com License - https://fontawesome.com/license (Commercial License) Copyright 2023 Fonticons, Inc. --><defs><style>.fa-secondary{opacity:.4}</style></defs><path class="fa-primary" d="M419.2 227.2L316.7 124.7 46.1 395.4c-18.7 18.7-18.7 49.1 0 67.9l34.6 34.6c18.7 18.7 49.1 18.7 67.9 0L419.2 227.2z"/><path class="fa-secondary" d="M234.7 42.7L248.8 5c1.1-3 4-5 7.2-5s6.1 2 7.2 5l14.1 37.7L315 56.8c3 1.1 5 4 5 7.2s-2 6.1-5 7.2L277.3 85.3 263.2 123c-1.1 3-4 5-7.2 5s-6.1-2-7.2-5L234.7 85.3 197 71.2c-3-1.1-5-4-5-7.2s2-6.1 5-7.2l37.7-14.1zm295.2 73.9L419.2 227.2l-39.6-39.6 105-105L461.4 59.3l-105 105-39.6-39.6L427.4 14.1c18.7-18.7 49.1-18.7 67.9 0l34.6 34.6c18.7 18.7 18.7 49.1 0 67.9zM7.5 117.2L64 96 85.2 39.5C86.9 35 91.2 32 96 32s9.1 3 10.8 7.5L128 96l56.5 21.2c4.5 1.7 7.5 6 7.5 10.8s-3 9.1-7.5 10.8L128 160l-21.2 56.5c-1.7 4.5-6 7.5-10.8 7.5s-9.1-3-10.8-7.5L64 160 7.5 138.8C3 137.1 0 132.8 0 128s3-9.1 7.5-10.8zm352 256L416 352l21.2-56.5c1.7-4.5 6-7.5 10.8-7.5s9.1 3 10.8 7.5L480 352l56.5 21.2c4.5 1.7 7.5 6 7.5 10.8s-3 9.1-7.5 10.8L480 416l-21.2 56.5c-1.7 4.5-6 7.5-10.8 7.5s-9.1-3-10.8-7.5L416 416l-56.5-21.2c-4.5-1.7-7.5-6-7.5-10.8s3-9.1 7.5-10.8z"/></svg>
